**kern	**kern	**dynam
*part1	*part1	*part1
*staff2	*staff1	*
*I"Piano	*	*
*clefG2	*clefG2	*
*k[b-]	*k[b-]	*
=1	=1	=1
*	*^	*
2f 2b-	(2bb-	4dd	.
.	.	4ff	.
2a	2aa))	4cc	.
.	.	(8aL	.
.	.	8ccJ	.
=	=	=	=
2f 2b-	((2bb-	4dd	.
.	.	4ff	.
2a	2aa))	4cc)	.
.	.	(8fL	.
.	.	8gJ	.
=	=	=	=
!	!LO:TX:b:i:t=dim.	!	!
1c 1f	1ff	4a	.
.	.	4cc	.
.	.	4a	.
.	.	8gL	.
.	.	8fJ)	.
=	=	=	=
((2c 2e	2b- 2cc	2g	.
4F)) 4f	4a 4cc	4f	.
4r;	4r;	4rgyy	.
*	*v	*v	*
=||	=||	=||
1r	1r	.
=	=	=
*	*8va	*
(2f 2a 2cc	(2ff 2aa 2ccc	p
2f 2b- 2dd	2ff 2bb- 2ddd	.
=	=	=
2f 2a 2cc	2ff 2aa 2ccc	.
2d) 2a 2dd	2ff) 2aa 2ddd	.
=	=	=
*-	*-	*-
!!!system-decoration: {(s1,s2)}
